X:655
T:Tatter Jack Walsh
R:jig
Z:Transcribed by Dave Marshall
M:6/8
K:Dmix
|: ~f3 ded | cAB c2d | cAF GFG | Add ^cde |
~f3 ded | cAB c2d | cAF GFG | Ad^c d3 :|
|: dfa afe | dfa afd | ceg ged | ceg gfg |
~f3 ded | cAB c2d | cAF GFG | Ad^c d3 :|
